X: 3303
T: Bell Rock, The
R: jig
M: 6/8
K: Dmajor
A|:dcd fed|dcB ~A3|Bgg Bff|efd cee|
dcd fed|dcB ~A3|Bgg aff|1 edc d2A:|2 edc dfg||
|:a2d dcd|BGG e2d|cAA g2f|efd cee|
[1 add dcd|BGG e2d|cAA g2f|edc dfg:|
[2 dff egg|dff ecA|~f3 gec|Adc d2||

